miniprogram/images/home/chuangguan.svg

<svg fill="none" height="44" viewBox="0 0 44 44" width="44" xmlns="http://www.w3.org/2000/svg" xmlns:xlink="http://www.w3.org/1999/xlink"><linearGradient id="a" gradientUnits="userSpaceOnUse" x1="47.8355" x2="47.8355" y1="44" y2="-7.67097"><stop offset="0" stop-color="#7381ff"/><stop offset="1" stop-color="#8e99fc"/></linearGradient><linearGradient id="b" gradientUnits="userSpaceOnUse" x1="13.9526" x2="21.0013" y1="27.1344" y2="50.204"><stop offset="0" stop-color="#fff" stop-opacity=".502"/><stop offset="1" stop-color="#5f6df3"/><stop offset="1" stop-color="#fc7751"/></linearGradient><linearGradient id="c" gradientUnits="userSpaceOnUse" x1="39.9883" x2="32.1238" y1="19.5332" y2="-.258916"><stop offset="0" stop-color="#fff" stop-opacity=".01"/><stop offset="1" stop-color="#a1aaff"/></linearGradient><linearGradient id="d" gradientUnits="userSpaceOnUse" x1="29.2301" x2="30.1539" y1="26.1948" y2="19.6723"><stop offset="0" stop-color="#fff" stop-opacity=".01"/><stop offset="1" stop-color="#3949dd"/></linearGradient><linearGradient id="e" gradientUnits="userSpaceOnUse" x1="30.1726" x2="31.0903" y1="20.5457" y2="25.916"><stop offset="0" stop-color="#fff" stop-opacity=".502"/><stop offset="1" stop-color="#5f6df3"/></linearGradient><clipPath id="f"><path d="m0 0h44v44h-44z"/></clipPath><clipPath id="g"><path d="m0 0h44v44h-44z"/></clipPath><clipPath id="h"><path d="m0 0h44v44h-44z"/></clipPath><clipPath id="i"><path d="m0 0h44v44h-44z"/></clipPath><clipPath id="j"><path d="m0 0h43.9996v43.9996h-43.9996z"/></clipPath><clipPath id="k"><path d="m11.3086 10.751h22.4663v21.7828h-22.4663z"/></clipPath><clipPath id="l"><path d="m11.3086 10.751h20.6721v21.7828h-20.6721z"/></clipPath><clipPath id="m"><path d="m11.3086 10.751h20.67v21.78h-20.67z"/></clipPath><clipPath id="n"><path d="m11.3086 10.751h20.6721v21.7827h-20.6721z"/></clipPath><clipPath id="o"><path d="m19.9609 21.9717h9.80746v7.21251h-9.80746z"/></clipPath><clipPath id="p"><path d="m29.7954 20.0869h3.97939v3.97939h-3.97939z"/></clipPath><mask id="q" height="44" maskUnits="userSpaceOnUse" width="44" x="0" y="0"><path clip-rule="evenodd" d="m22 44c12.15 0 22-9.85 22-22s-9.85-22-22-22-22 9.85-22 22 9.85 22 22 22z" fill="#fff" fill-rule="evenodd"/></mask><mask height="23" maskUnits="userSpaceOnUse" width="21" x="11" y="10"><path clip-rule="evenodd" d="m22.1186 32.531c4.07 0 7.76-2.26 9.62-5.91l-6.91-4.65 7.15-4.8c-1.74-3.9-5.61-6.42-9.86-6.42-2.89 0-5.6 1.13-7.64 3.19s-3.17 4.79-3.17 7.7c0 6.01 4.85 10.89 10.81 10.89zm-1.0636-15.1616c.27 0 .5-.22.5-.5v-.75h.75c.28 0 .5-.23.5-.5v-.26c0-.27-.22-.5-.5-.5h-.75v-.75c0-.28-.23-.5-.5-.5h-.26c-.27 0-.5.22-.5.5v.75h-.75c-.28 0-.5.23-.5.5v.26c0 .27.22.5.5.5h.75v.75c0 .28.23.5.5.5z" fill="#fff" fill-rule="evenodd"/></mask><g clip-path="url(#f)"><g clip-path="url(#g)"><g clip-path="url(#h)"><g clip-path="url(#i)" clip-rule="evenodd" fill-rule="evenodd"><path d="m22 0c-12.15 0-22 9.85-22 22s9.85 22 22 22 22-9.85 22-22-9.85-22-22-22z" fill="#6236ff"/><path d="m22 0c-12.15 0-22 9.85-22 22s9.85 22 22 22 22-9.85 22-22-9.85-22-22-22z" fill="url(#a)"/></g><g clip-path="url(#j)"><g clip-rule="evenodd" fill="#2632a2" fill-rule="evenodd" mask="url(#q)"><path d="m-5.56055 16.3323 3.35 25.93 11.24-10.05v-31.1l-12.23 8.32z" opacity=".24"/><path d="m35.5869 31.94 11.24 10.32 3.35-26.63-2.36-7.08-12.23-8.55z" opacity=".24"/></g></g></g><g clip-path="url(#k)"><g clip-path="url(#l)"><g clip-path="url(#m)" clip-rule="evenodd" fill-rule="evenodd"><path d="m21.5569 14.111c0-.2762-.2239-.5-.5-.5h-.2542c-.2761 0-.5.2238-.5.5v.7541h-.7541c-.2762 0-.5.2239-.5.5v.2542c0 .2762.2238.5.5.5h.7541v.7542c0 .2761.2239.5.5.5h.2542c.2761 0 .5-.2239.5-.5v-.7542h.7542c.2761 0 .5-.2238.5-.5v-.2542c0-.2761-.2239-.5-.5-.5h-.7542zm.5617-3.36c-5.97 0-10.81 4.88-10.81 10.89 0 6.02 4.84 10.89 10.81 10.89s10.82-4.87 10.82-10.89c0-6.01-4.85-10.89-10.82-10.89zm18.9236.3318-16.22 10.89 16.22 10.89z" fill="#fff"/><path d="m21.5569 14.111c0-.2762-.2239-.5-.5-.5h-.2542c-.2761 0-.5.2238-.5.5v.7541h-.7541c-.2762 0-.5.2239-.5.5v.2542c0 .2762.2238.5.5.5h.7541v.7542c0 .2761.2239.5.5.5h.2542c.2761 0 .5-.2239.5-.5v-.7542h.7542c.2761 0 .5-.2238.5-.5v-.2542c0-.2761-.2239-.5-.5-.5h-.7542zm.5617-3.36c-5.97 0-10.81 4.88-10.81 10.89 0 6.02 4.84 10.89 10.81 10.89s10.82-4.87 10.82-10.89c0-6.01-4.85-10.89-10.82-10.89zm18.9236.3318-16.22 10.89 16.22 10.89z" fill="url(#b)"/><path d="m21.5569 14.111c0-.2762-.2239-.5-.5-.5h-.2542c-.2761 0-.5.2238-.5.5v.7541h-.7541c-.2762 0-.5.2239-.5.5v.2542c0 .2762.2238.5.5.5h.7541v.7542c0 .2761.2239.5.5.5h.2542c.2761 0 .5-.2239.5-.5v-.7542h.7542c.2761 0 .5-.2238.5-.5v-.2542c0-.2761-.2239-.5-.5-.5h-.7542zm.5617-3.36c-5.97 0-10.81 4.88-10.81 10.89 0 6.02 4.84 10.89 10.81 10.89s10.82-4.87 10.82-10.89c0-6.01-4.85-10.89-10.82-10.89zm18.9236.3318-16.22 10.89 16.22 10.89z" fill="url(#c)"/></g><g clip-path="url(#n)"><g clip-path="url(#o)" opacity=".88"><path clip-rule="evenodd" d="m21.1909 29.1817 4.21-.73 4.37-5.06-2.84-1.42h-2.11l-4.86 3.61z" fill="url(#d)" fill-rule="evenodd"/></g></g></g><g clip-path="url(#p)" clip-rule="evenodd" fill-rule="evenodd"><path d="m31.7854 20.0869c-1.1 0-1.99.89-1.99 1.99s.89 1.99 1.99 1.99 1.99-.89 1.99-1.99-.89-1.99-1.99-1.99z" fill="#fff"/><path d="m31.7854 20.0869c-1.1 0-1.99.89-1.99 1.99s.89 1.99 1.99 1.99 1.99-.89 1.99-1.99-.89-1.99-1.99-1.99z" fill="url(#e)"/></g></g></g></g></svg>

<svg width="44" height="44" viewBox="0 0 44 44" fill="none" xmlns="http://www.w3.org/2000/svg">
<g clip-path="url(#clip0_0_1890)">
<g clip-path="url(#clip1_0_1890)">
<g clip-path="url(#clip2_0_1890)">
<g clip-path="url(#clip3_0_1890)">
<path fill-rule="evenodd" clip-rule="evenodd" d="M22 0C9.85 0 0 9.85 0 22C0 34.15 9.85 44 22 44C34.15 44 44 34.15 44 22C44 9.85 34.15 0 22 0Z" fill="#6236FF"/>
<path fill-rule="evenodd" clip-rule="evenodd" d="M22 0C9.85 0 0 9.85 0 22C0 34.15 9.85 44 22 44C34.15 44 44 34.15 44 22C44 9.85 34.15 0 22 0Z" fill="url(#paint0_linear_0_1890)"/>
</g>
<g clip-path="url(#clip4_0_1890)">
<mask id="mask0_0_1890" style="mask-type:luminance" maskUnits="userSpaceOnUse" x="0" y="0" width="44" height="44">
<path fill-rule="evenodd" clip-rule="evenodd" d="M22 44C34.15 44 44 34.15 44 22C44 9.85 34.15 0 22 0C9.85 0 0 9.85 0 22C0 34.15 9.85 44 22 44Z" fill="white"/>
</mask>
<g mask="url(#mask0_0_1890)">
<path opacity="0.24" fill-rule="evenodd" clip-rule="evenodd" d="M-5.56055 16.3323L-2.21055 42.2623L9.02945 32.2123V1.1123L-3.20055 9.4323L-5.56055 16.3323Z" fill="#2632A2"/>
<path opacity="0.24" fill-rule="evenodd" clip-rule="evenodd" d="M35.5869 31.94L46.8269 42.26L50.1769 15.63L47.8169 8.55L35.5869 0V31.94Z" fill="#2632A2"/>
</g>
</g>
</g>
<g clip-path="url(#clip5_0_1890)">
<g clip-path="url(#clip6_0_1890)">
<g clip-path="url(#clip7_0_1890)">
<path fill-rule="evenodd" clip-rule="evenodd" d="M21.5569 14.111C21.5569 13.8348 21.333 13.611 21.0569 13.611H20.8027C20.5266 13.611 20.3027 13.8348 20.3027 14.111V14.8651H19.5486C19.2724 14.8651 19.0486 15.089 19.0486 15.3651V15.6193C19.0486 15.8955 19.2724 16.1193 19.5486 16.1193H20.3027V16.8735C20.3027 17.1496 20.5266 17.3735 20.8027 17.3735H21.0569C21.333 17.3735 21.5569 17.1496 21.5569 16.8735V16.1193H22.3111C22.5872 16.1193 22.8111 15.8955 22.8111 15.6193V15.3651C22.8111 15.089 22.5872 14.8651 22.3111 14.8651H21.5569V14.111ZM22.1186 10.751C16.1486 10.751 11.3086 15.631 11.3086 21.641C11.3086 27.661 16.1486 32.531 22.1186 32.531C28.0886 32.531 32.9386 27.661 32.9386 21.641C32.9386 15.631 28.0886 10.751 22.1186 10.751ZM41.0422 11.0828L24.8222 21.9728L41.0422 32.8628V11.0828Z" fill="white"/>
<path fill-rule="evenodd" clip-rule="evenodd" d="M21.5569 14.111C21.5569 13.8348 21.333 13.611 21.0569 13.611H20.8027C20.5266 13.611 20.3027 13.8348 20.3027 14.111V14.8651H19.5486C19.2724 14.8651 19.0486 15.089 19.0486 15.3651V15.6193C19.0486 15.8955 19.2724 16.1193 19.5486 16.1193H20.3027V16.8735C20.3027 17.1496 20.5266 17.3735 20.8027 17.3735H21.0569C21.333 17.3735 21.5569 17.1496 21.5569 16.8735V16.1193H22.3111C22.5872 16.1193 22.8111 15.8955 22.8111 15.6193V15.3651C22.8111 15.089 22.5872 14.8651 22.3111 14.8651H21.5569V14.111ZM22.1186 10.751C16.1486 10.751 11.3086 15.631 11.3086 21.641C11.3086 27.661 16.1486 32.531 22.1186 32.531C28.0886 32.531 32.9386 27.661 32.9386 21.641C32.9386 15.631 28.0886 10.751 22.1186 10.751ZM41.0422 11.0828L24.8222 21.9728L41.0422 32.8628V11.0828Z" fill="url(#paint1_linear_0_1890)"/>
<path fill-rule="evenodd" clip-rule="evenodd" d="M21.5569 14.111C21.5569 13.8348 21.333 13.611 21.0569 13.611H20.8027C20.5266 13.611 20.3027 13.8348 20.3027 14.111V14.8651H19.5486C19.2724 14.8651 19.0486 15.089 19.0486 15.3651V15.6193C19.0486 15.8955 19.2724 16.1193 19.5486 16.1193H20.3027V16.8735C20.3027 17.1496 20.5266 17.3735 20.8027 17.3735H21.0569C21.333 17.3735 21.5569 17.1496 21.5569 16.8735V16.1193H22.3111C22.5872 16.1193 22.8111 15.8955 22.8111 15.6193V15.3651C22.8111 15.089 22.5872 14.8651 22.3111 14.8651H21.5569V14.111ZM22.1186 10.751C16.1486 10.751 11.3086 15.631 11.3086 21.641C11.3086 27.661 16.1486 32.531 22.1186 32.531C28.0886 32.531 32.9386 27.661 32.9386 21.641C32.9386 15.631 28.0886 10.751 22.1186 10.751ZM41.0422 11.0828L24.8222 21.9728L41.0422 32.8628V11.0828Z" fill="url(#paint2_linear_0_1890)"/>
</g>
<g clip-path="url(#clip8_0_1890)">
<mask id="mask1_0_1890" style="mask-type:luminance" maskUnits="userSpaceOnUse" x="11" y="10" width="21" height="23">
<path fill-rule="evenodd" clip-rule="evenodd" d="M22.1186 32.531C26.1886 32.531 29.8786 30.271 31.7386 26.621L24.8286 21.971L31.9786 17.171C30.2386 13.271 26.3686 10.751 22.1186 10.751C19.2286 10.751 16.5186 11.881 14.4786 13.941C12.4386 16.001 11.3086 18.731 11.3086 21.641C11.3086 27.651 16.1586 32.531 22.1186 32.531ZM21.055 17.3694C21.325 17.3694 21.555 17.1494 21.555 16.8694V16.1194H22.305C22.585 16.1194 22.805 15.8894 22.805 15.6194V15.3594C22.805 15.0894 22.585 14.8594 22.305 14.8594H21.555V14.1094C21.555 13.8294 21.325 13.6094 21.055 13.6094H20.795C20.525 13.6094 20.295 13.8294 20.295 14.1094V14.8594H19.545C19.265 14.8594 19.045 15.0894 19.045 15.3594V15.6194C19.045 15.8894 19.265 16.1194 19.545 16.1194H20.295V16.8694C20.295 17.1494 20.525 17.3694 20.795 17.3694H21.055Z" fill="white"/>
</mask>
<g mask="url(#mask1_0_1890)">
</g>
<g opacity="0.88" clip-path="url(#clip9_0_1890)">
<path fill-rule="evenodd" clip-rule="evenodd" d="M21.1909 29.1817L25.4009 28.4517L29.7709 23.3917L26.9309 21.9717H24.8209L19.9609 25.5817L21.1909 29.1817Z" fill="url(#paint3_linear_0_1890)"/>
</g>
</g>
</g>
<g clip-path="url(#clip10_0_1890)">
<path fill-rule="evenodd" clip-rule="evenodd" d="M31.7854 20.0869C30.6854 20.0869 29.7954 20.9769 29.7954 22.0769C29.7954 23.1769 30.6854 24.0669 31.7854 24.0669C32.8854 24.0669 33.7754 23.1769 33.7754 22.0769C33.7754 20.9769 32.8854 20.0869 31.7854 20.0869Z" fill="white"/>
<path fill-rule="evenodd" clip-rule="evenodd" d="M31.7854 20.0869C30.6854 20.0869 29.7954 20.9769 29.7954 22.0769C29.7954 23.1769 30.6854 24.0669 31.7854 24.0669C32.8854 24.0669 33.7754 23.1769 33.7754 22.0769C33.7754 20.9769 32.8854 20.0869 31.7854 20.0869Z" fill="url(#paint4_linear_0_1890)"/>
</g>
</g>
</g>
</g>
<defs>
<linearGradient id="paint0_linear_0_1890" x1="47.8355" y1="44" x2="47.8355" y2="-7.67097" gradientUnits="userSpaceOnUse">
<stop stop-color="#7381FF"/>
<stop offset="1" stop-color="#8E99FC"/>
</linearGradient>
<linearGradient id="paint1_linear_0_1890" x1="13.9526" y1="27.1344" x2="21.0013" y2="50.204" gradientUnits="userSpaceOnUse">
<stop stop-color="white" stop-opacity="0.502"/>
<stop offset="1" stop-color="#5F6DF3"/>
<stop offset="1" stop-color="#FC7751"/>
</linearGradient>
<linearGradient id="paint2_linear_0_1890" x1="39.9883" y1="19.5332" x2="32.1238" y2="-0.258916" gradientUnits="userSpaceOnUse">
<stop stop-color="white" stop-opacity="0.01"/>
<stop offset="1" stop-color="#A1AAFF"/>
</linearGradient>
<linearGradient id="paint3_linear_0_1890" x1="29.2301" y1="26.1948" x2="30.1539" y2="19.6723" gradientUnits="userSpaceOnUse">
<stop stop-color="white" stop-opacity="0.01"/>
<stop offset="1" stop-color="#3949DD"/>
</linearGradient>
<linearGradient id="paint4_linear_0_1890" x1="30.1726" y1="20.5457" x2="31.0903" y2="25.916" gradientUnits="userSpaceOnUse">
<stop stop-color="white" stop-opacity="0.502"/>
<stop offset="1" stop-color="#5F6DF3"/>
</linearGradient>
<clipPath id="clip0_0_1890">
<rect width="44" height="44" fill="white"/>
</clipPath>
<clipPath id="clip1_0_1890">
<rect width="44" height="44" fill="white"/>
</clipPath>
<clipPath id="clip2_0_1890">
<rect width="44" height="44" fill="white"/>
</clipPath>
<clipPath id="clip3_0_1890">
<rect width="44" height="44" fill="white"/>
</clipPath>
<clipPath id="clip4_0_1890">
<rect width="43.9996" height="43.9996" fill="white"/>
</clipPath>
<clipPath id="clip5_0_1890">
<rect width="22.4663" height="21.7828" fill="white" transform="translate(11.3086 10.751)"/>
</clipPath>
<clipPath id="clip6_0_1890">
<rect width="20.6721" height="21.7828" fill="white" transform="translate(11.3086 10.751)"/>
</clipPath>
<clipPath id="clip7_0_1890">
<rect width="20.67" height="21.78" fill="white" transform="translate(11.3086 10.751)"/>
</clipPath>
<clipPath id="clip8_0_1890">
<rect width="20.6721" height="21.7827" fill="white" transform="translate(11.3086 10.751)"/>
</clipPath>
<clipPath id="clip9_0_1890">
<rect width="9.80746" height="7.21251" fill="white" transform="translate(19.9609 21.9717)"/>
</clipPath>
<clipPath id="clip10_0_1890">
<rect width="3.97939" height="3.97939" fill="white" transform="translate(29.7954 20.0869)"/>
</clipPath>
</defs>
</svg>
